static/assets/icons/alby_logo.svg

<svg width="277" height="400" viewBox="0 0 277 400" fill="none" xmlns="http://www.w3.org/2000/svg">
<ellipse opacity="0.1" cx="139.297" cy="387.141" rx="67.8185" ry="12.5203" fill="black"/>
<path d="M204.672 326.189C239.708 326.189 255.655 248.61 255.655 219.195C255.655 196.267 239.834 182.372 219.036 182.372C198.368 182.372 181.588 191.26 181.38 202.266C181.379 231.312 176.267 326.189 204.672 326.189Z" fill="white" stroke="black" stroke-width="10.4336"/>
<path d="M76.7038 326.189C41.6676 326.189 25.7207 248.61 25.7207 219.195C25.7207 196.267 41.541 182.372 62.3393 182.372C83.0078 182.372 99.7874 191.26 99.9958 202.266C99.9963 231.312 105.108 326.189 76.7038 326.189Z" fill="white" stroke="black" stroke-width="10.4336"/>
<mask id="path-4-inside-1_3979_21165" fill="white">
<path fill-rule="evenodd" clip-rule="evenodd" d="M236.318 210.286C236.886 204.663 230.568 201.268 225.706 204.149C200.293 219.209 170.631 227.855 138.949 227.855C107.563 227.855 78.1582 219.37 52.9041 204.569C48.0324 201.714 41.7354 205.132 42.322 210.748C46.6481 252.172 69.2147 286.845 100.138 302.986C108.77 307.491 114.809 315.454 120.872 323.449C125.774 329.913 130.692 336.398 137.01 341.094C137.744 341.641 138.51 341.929 139.296 341.929C140.083 341.929 140.849 341.641 141.583 341.094C147.9 336.398 152.818 329.913 157.72 323.449C163.784 315.454 169.823 307.491 178.454 302.986C209.493 286.785 232.112 251.914 236.318 210.286Z"/>
</mask>
<path fill-rule="evenodd" clip-rule="evenodd" d="M236.318 210.286C236.886 204.663 230.568 201.268 225.706 204.149C200.293 219.209 170.631 227.855 138.949 227.855C107.563 227.855 78.1582 219.37 52.9041 204.569C48.0324 201.714 41.7354 205.132 42.322 210.748C46.6481 252.172 69.2147 286.845 100.138 302.986C108.77 307.491 114.809 315.454 120.872 323.449C125.774 329.913 130.692 336.398 137.01 341.094C137.744 341.641 138.51 341.929 139.296 341.929C140.083 341.929 140.849 341.641 141.583 341.094C147.9 336.398 152.818 329.913 157.72 323.449C163.784 315.454 169.823 307.491 178.454 302.986C209.493 286.785 232.112 251.914 236.318 210.286Z" fill="#FFDF6F"/>
<path d="M100.138 302.986L95.3108 312.235L95.3108 312.235L100.138 302.986ZM120.872 323.449L112.559 329.754L120.872 323.449ZM137.01 341.094L130.785 349.468L130.785 349.468L137.01 341.094ZM141.583 341.094L135.358 332.721L135.358 332.721L141.583 341.094ZM157.72 323.449L166.034 329.754L166.034 329.754L157.72 323.449ZM178.454 302.986L183.282 312.235L178.454 302.986ZM225.706 204.149L231.025 213.125L225.706 204.149ZM236.318 210.286L225.937 209.237L236.318 210.286ZM220.387 195.173C196.54 209.306 168.708 217.421 138.949 217.421V238.289C172.553 238.289 204.047 229.113 231.025 213.125L220.387 195.173ZM138.949 217.421C109.467 217.421 81.8774 209.456 58.1798 195.568L47.6285 213.571C74.4389 229.284 105.658 238.289 138.949 238.289V217.421ZM31.9448 211.832C36.5798 256.213 60.8464 294.247 95.3108 312.235L104.966 293.736C77.583 279.444 56.7164 248.13 52.6991 209.664L31.9448 211.832ZM95.3108 312.235C101.507 315.469 106.198 321.367 112.559 329.754L129.186 317.144C123.419 309.541 116.033 299.513 104.966 293.736L95.3108 312.235ZM112.559 329.754C117.281 335.981 123.067 343.73 130.785 349.468L143.234 332.721C138.317 329.066 134.267 323.845 129.186 317.144L112.559 329.754ZM130.785 349.468C132.91 351.048 135.807 352.363 139.296 352.363V331.496C141.213 331.496 142.578 332.233 143.234 332.721L130.785 349.468ZM139.296 352.363C142.786 352.363 145.683 351.048 147.808 349.467L135.358 332.721C136.014 332.233 137.38 331.496 139.296 331.496V352.363ZM147.808 349.468C155.525 343.73 161.311 335.981 166.034 329.754L149.407 317.145C144.325 323.845 140.275 329.066 135.358 332.721L147.808 349.468ZM166.034 329.754C172.394 321.367 177.086 315.469 183.282 312.235L173.627 293.736C162.559 299.513 155.173 309.541 149.407 317.145L166.034 329.754ZM183.282 312.235C217.874 294.18 242.193 255.932 246.699 211.335L225.937 209.237C222.031 247.896 201.112 279.39 173.627 293.736L183.282 312.235ZM58.1798 195.568C52.3661 192.16 45.5927 192.465 40.4096 195.412C35.0876 198.437 31.1764 204.474 31.9448 211.832L52.6991 209.664C52.7722 210.363 52.6317 211.225 52.1925 212.026C51.7804 212.778 51.2241 213.267 50.7229 213.552C49.7595 214.1 48.5704 214.123 47.6285 213.571L58.1798 195.568ZM231.025 213.125C230.086 213.682 228.896 213.664 227.93 213.12C227.427 212.837 226.868 212.35 226.453 211.599C226.01 210.798 225.867 209.936 225.937 209.237L246.699 211.335C247.443 203.968 243.505 197.942 238.167 194.937C232.969 192.01 226.189 191.735 220.387 195.173L231.025 213.125Z" fill="black" mask="url(#path-4-inside-1_3979_21165)"/>
<ellipse cx="139.644" cy="209.075" rx="91.8158" ry="30.6053" fill="black" stroke="black" stroke-width="10.4336"/>
<path d="M65.9132 260.547C65.9132 260.547 111.201 275.85 140.34 275.85C169.478 275.85 214.766 260.547 214.766 260.547" stroke="black" stroke-width="10.4336" stroke-linecap="round"/>
<circle r="20.7612" transform="matrix(-1 0 0 1 53.2872 78.2007)" fill="black"/>
<path d="M49.827 75.0864L88.5813 113.841" stroke="black" stroke-width="10.3806"/>
<circle cx="222.837" cy="78.2007" r="20.7612" fill="black"/>
<path d="M226.644 75.0864L187.889 113.841" stroke="black" stroke-width="10.3806"/>
<path fill-rule="evenodd" clip-rule="evenodd" d="M59.1801 202.089C47.9905 196.763 41.4782 184.8 43.6597 172.601C53.0224 120.241 92.0414 80.9692 138.754 80.9692C185.58 80.9692 224.675 120.431 233.916 172.982C236.065 185.203 229.5 197.16 218.272 202.444C194.247 213.75 167.412 220.07 139.1 220.07C110.495 220.07 83.396 213.618 59.1801 202.089Z" fill="#FFDF6F"/>
<path d="M233.916 172.982L228.804 173.881L233.916 172.982ZM48.7689 173.514C57.8159 122.921 95.2125 86.1595 138.754 86.1595V75.7789C88.8703 75.7789 48.229 117.561 38.5504 171.687L48.7689 173.514ZM138.754 86.1595C182.401 86.1595 219.874 123.1 228.804 173.881L239.028 172.083C229.476 117.762 188.759 75.7789 138.754 75.7789V86.1595ZM216.062 197.747C192.714 208.735 166.632 214.879 139.1 214.879V225.26C168.192 225.26 195.78 218.764 220.482 207.14L216.062 197.747ZM139.1 214.879C111.283 214.879 84.9448 208.606 61.4111 197.403L56.9491 206.776C81.8471 218.629 109.707 225.26 139.1 225.26V214.879ZM228.804 173.881C230.527 183.679 225.281 193.409 216.062 197.747L220.482 207.14C233.72 200.911 241.603 186.727 239.028 172.083L228.804 173.881ZM38.5504 171.687C35.9364 186.305 43.7574 200.496 56.9491 206.776L61.4111 197.403C52.2235 193.029 47.0201 183.295 48.7689 173.514L38.5504 171.687Z" fill="black"/>
<path fill-rule="evenodd" clip-rule="evenodd" d="M79.1452 189.072C70.1381 185.404 64.7952 175.821 67.9162 166.61C77.5412 138.204 105.618 117.647 138.754 117.647C171.891 117.647 199.967 138.204 209.592 166.61C212.713 175.821 207.371 185.404 198.363 189.072C179.967 196.564 159.843 200.692 138.754 200.692C117.666 200.692 97.5414 196.564 79.1452 189.072Z" fill="black"/>
<ellipse cx="162.63" cy="161.938" rx="17.301" ry="13.8408" fill="white"/>
<ellipse cx="113.101" cy="161.946" rx="17.301" ry="13.8408" fill="white"/>
</svg>

<svg xmlns="http://www.w3.org/2000/svg" width="277" height="400" fill="none"><ellipse cx="139.3" cy="387.14" fill="#000" opacity=".1" rx="67.82" ry="12.52"/><path fill="#fff" stroke="#000" stroke-width="10.43" d="M204.67 326.19c35.04 0 50.99-77.58 50.99-107 0-22.92-15.83-36.82-36.62-36.82-20.67 0-37.45 8.89-37.66 19.9 0 29.04-5.11 123.92 23.3 123.92Zm-127.97 0c-35.03 0-50.98-77.58-50.98-107 0-22.92 15.82-36.82 36.62-36.82 20.67 0 37.45 8.89 37.66 19.9 0 29.04 5.1 123.92-23.3 123.92Z"/><mask id="a" fill="#fff"><path fill-rule="evenodd" d="M236.32 210.29c.57-5.63-5.75-9.02-10.61-6.14a169.63 169.63 0 0 1-86.76 23.7c-31.39 0-60.8-8.48-86.05-23.28-4.87-2.86-11.16.56-10.58 6.18 4.33 41.42 26.9 76.1 57.82 92.24 8.63 4.5 14.67 12.46 20.73 20.46 4.9 6.46 9.82 12.95 16.14 17.64.73.55 1.5.84 2.29.84a3.8 3.8 0 0 0 2.28-.84c6.32-4.7 11.24-11.18 16.14-17.64 6.06-8 12.1-15.96 20.73-20.46 31.04-16.2 53.66-51.08 57.87-92.7Z" clip-rule="evenodd"/></mask><path fill="#FFDF6F" fill-rule="evenodd" d="M236.32 210.29c.57-5.63-5.75-9.02-10.61-6.14a169.63 169.63 0 0 1-86.76 23.7c-31.39 0-60.8-8.48-86.05-23.28-4.87-2.86-11.16.56-10.58 6.18 4.33 41.42 26.9 76.1 57.82 92.24 8.63 4.5 14.67 12.46 20.73 20.46 4.9 6.46 9.82 12.95 16.14 17.64.73.55 1.5.84 2.29.84a3.8 3.8 0 0 0 2.28-.84c6.32-4.7 11.24-11.18 16.14-17.64 6.06-8 12.1-15.96 20.73-20.46 31.04-16.2 53.66-51.08 57.87-92.7Z" clip-rule="evenodd"/><path fill="#000" d="m100.14 302.99-4.83 9.25 4.83-9.25Zm20.73 20.46-8.31 6.3 8.31-6.3Zm16.14 17.64-6.22 8.38 6.22-8.38Zm4.57 0-6.22-8.37 6.22 8.37Zm16.14-17.64 8.31 6.3-8.31-6.3Zm20.73-20.46 4.83 9.25-4.83-9.25Zm47.26-98.84 5.31 8.97-5.31-8.97Zm10.6 6.14-10.37-1.05 10.38 1.05Zm-15.92-15.12a159.19 159.19 0 0 1-81.44 22.25v20.87c33.6 0 65.1-9.18 92.08-25.16l-10.64-17.96Zm-81.44 22.25a159.2 159.2 0 0 1-80.77-21.85l-10.55 18a180.06 180.06 0 0 0 91.32 24.72v-20.87Zm-107-5.59c4.63 44.38 28.9 82.42 63.36 100.4l9.66-18.5c-27.39-14.29-48.25-45.6-52.27-84.07l-20.76 2.17Zm63.36 100.4c6.2 3.24 10.89 9.14 17.25 17.52l16.63-12.6c-5.77-7.6-13.16-17.64-24.22-23.41l-9.66 18.5Zm17.25 17.52c4.72 6.23 10.5 13.98 18.22 19.72l12.45-16.75c-4.91-3.65-8.96-8.88-14.04-15.58l-16.63 12.61Zm18.22 19.72a14.23 14.23 0 0 0 8.52 2.9V331.5c1.91 0 3.28.73 3.93 1.22l-12.44 16.75Zm8.52 2.9c3.49 0 6.38-1.32 8.5-2.9l-12.44-16.75a6.67 6.67 0 0 1 3.94-1.22v20.86Zm8.5-2.9c7.72-5.74 13.51-13.49 18.23-19.72l-16.62-12.6c-5.09 6.7-9.13 11.92-14.05 15.57l12.45 16.75Zm18.23-19.72c6.36-8.38 11.06-14.28 17.25-17.51l-9.65-18.5c-11.07 5.77-18.46 15.8-24.22 23.4l16.62 12.61Zm17.25-17.51c34.6-18.06 58.91-56.3 63.42-100.9l-20.76-2.1c-3.9 38.66-24.83 70.15-52.31 84.5l9.65 18.5ZM58.18 195.56a17.76 17.76 0 0 0-17.77-.16 16.74 16.74 0 0 0-8.47 16.42l20.76-2.17a4.13 4.13 0 0 1-1.98 3.9 3.1 3.1 0 0 1-3.1.01l10.56-18Zm172.84 17.56a3.1 3.1 0 0 1-3.09-.01 4.14 4.14 0 0 1-2-3.88l20.77 2.1c.74-7.37-3.2-13.4-8.53-16.4a17.76 17.76 0 0 0-17.78.23l10.64 17.96Z" mask="url(#a)"/><ellipse cx="139.64" cy="209.07" fill="#000" stroke="#000" stroke-width="10.43" rx="91.82" ry="30.61"/><path stroke="#000" stroke-linecap="round" stroke-width="10.43" d="M65.91 260.55s45.3 15.3 74.43 15.3c29.14 0 74.43-15.3 74.43-15.3"/><circle r="20.76" fill="#000" transform="matrix(-1 0 0 1 53.29 78.2)"/><path stroke="#000" stroke-width="10.38" d="m49.83 75.09 38.75 38.75"/><circle cx="222.84" cy="78.2" r="20.76" fill="#000"/><path stroke="#000" stroke-width="10.38" d="m226.64 75.09-38.75 38.75"/><path fill="#FFDF6F" fill-rule="evenodd" d="M59.18 202.09c-11.19-5.33-17.7-17.29-15.52-29.49 9.36-52.36 48.38-91.63 95.1-91.63 46.82 0 85.92 39.46 95.16 92.01 2.15 12.22-4.42 24.18-15.65 29.46a185.44 185.44 0 0 1-79.17 17.63c-28.6 0-55.7-6.45-79.92-17.98Z" clip-rule="evenodd"/><path fill="#000" d="m233.92 172.98-5.12.9 5.12-.9Zm-185.15.53c9.05-50.59 46.44-87.35 89.98-87.35V75.78c-49.88 0-90.52 41.78-100.2 95.9l10.22 1.83Zm89.98-87.35c43.65 0 81.12 36.94 90.05 87.72l10.23-1.8c-9.55-54.32-50.27-96.3-100.28-96.3v10.38Zm77.31 111.59a180.24 180.24 0 0 1-76.96 17.13v10.38c29.1 0 56.68-6.5 81.38-18.12l-4.42-9.4Zm-76.96 17.13c-27.82 0-54.16-6.27-77.69-17.48l-4.46 9.38a190.62 190.62 0 0 0 82.15 18.48v-10.38Zm89.7-41c1.73 9.8-3.52 19.53-12.74 23.87l4.42 9.39c13.24-6.23 21.12-20.41 18.55-35.06l-10.23 1.8Zm-190.25-2.2c-2.61 14.63 5.2 28.82 18.4 35.1l4.46-9.38c-9.19-4.37-14.39-14.1-12.64-23.89l-10.22-1.82Z"/><path fill="#000" fill-rule="evenodd" d="M79.15 189.07c-9.01-3.67-14.35-13.25-11.23-22.46 9.62-28.4 37.7-48.96 70.83-48.96 33.14 0 61.22 20.55 70.84 48.96 3.12 9.21-2.22 18.8-11.23 22.46a157.68 157.68 0 0 1-59.6 11.62c-21.1 0-41.22-4.13-59.61-11.62Z" clip-rule="evenodd"/><ellipse cx="162.63" cy="161.94" fill="#fff" rx="17.3" ry="13.84"/><ellipse cx="113.1" cy="161.95" fill="#fff" rx="17.3" ry="13.84"/></svg>
